src/22/actions/view-fullscreen.svg

<svg xmlns="http://www.w3.org/2000/svg" viewBox="0 0 22 22"><path d="M3 3v3l3-3H3zm13 0l3 3V3h-3zM6 6v10h10V6H6zm1 3h8v6H7V9zm-4 7v3h3l-3-3zm16 0l-3 3h3v-3z" fill="currentColor" color="#5d656b"/></svg>

<svg xmlns="http://www.w3.org/2000/svg" viewBox="0 0 22 22">
  <defs id="defs3051">
    <style type="text/css" id="current-color-scheme">
      .ColorScheme-Text {
        color:#5d656b;
      }
      </style>
  </defs>
 <path 
    style="fill:currentColor;fill-opacity:1;stroke:none" 
    d="M 3 3 L 3 6 L 6 3 L 3 3 z M 16 3 L 19 6 L 19 3 L 16 3 z M 6 6 L 6 9 L 6 15 L 6 16 L 16 16 L 16 15 L 16 6 L 7 6 L 6 6 z M 7 9 L 15 9 L 15 15 L 7 15 L 7 9 z M 3 16 L 3 19 L 6 19 L 3 16 z M 19 16 L 16 19 L 19 19 L 19 16 z "
	class="ColorScheme-Text"
    />  
</svg>
